X:1
T:Rousseau, 87.87.87
T:Rousseau, 87.87.87
T:Jean-Jacques Rousseau, 1752 
T:Public Domain Courtesy of the Cyber Hymnal™
C:Jean-Jacques Rousseau, 1752
Z:Public Domain
Z:Courtesy of the Cyber Hymnal™
%%score ( 1 2 ) ( 3 4 )
L:1/8
Q:1/4=110
M:2/4
K:F
V:1 treble 
V:2 treble 
V:3 bass 
V:4 bass 
V:1
 [FA]2 (AG) | F2 F2 | [FG]2 [EG]2 | [FA]2 [CF]2 | [Fc]2 (cB) | [FA]2 [FA]2 | ([EG]F) (GA) | F4 | %8
 [FA]2 (AB) | [Fc]2 [Fc]2 | [Fd]2 [Fd]2 | [Fc]2 [FA]2 | [FA]2 (AB) | [Fc]2 [Fc]2 | [Fd]2 (fd) | %15
 [Fc]4 | [FA]2 (AG) | [DF]2 F2 | [FG]2 [EG]2 | [FA]2 [CF]2 | [Fc]2 (cB) | [FA]2 [FA]2 | %22
 ([EG]F) (GA) | F4 |] %24
V:2
 x2 E2 | F2 (CF) | x4 | x4 | x2 G2 | x4 | x F E2 | F4 | x2 F2 | x4 | x4 | x4 | x2 F2 | x4 | x2 F2 | %15
 x4 | x2 E2 | x2 (CF) | x4 | x4 | x2 G2 | x4 | x F E2 | F4 |] %24
V:3
 [F,C]2 (CB,) | [D,A,]2 [A,,C]2 | [B,,D]2 [C,C]2 | [F,C]2 [F,A,]2 | (A,C) [E,C]2 | [F,C]2 [A,,C]2 | %6
 (B,A,) (B,C) | [F,A,]4 | [F,C]2 [D,D]2 | [A,C]2 [F,A,]2 | B,2 [B,,B,]2 | [F,A,]2 [F,C]2 | %12
 [F,C]2 C2 | [A,C]2 [F,A,]2 | B,2 (DB,) | [F,A,]4 | [F,C]2 (CB,) | [D,A,]2 [A,,C]2 | %18
 [B,,D]2 [C,C]2 | [F,C]2 [F,A,]2 | (A,C) [E,C]2 | [F,C]2 [A,,C]2 | (B,A,) (B,C) | [F,A,]4 |] %24
V:4
 x2 C,2 | x4 | x4 | x4 | A,2 x2 | x4 | C,2 C,2 | x4 | x4 | x4 | B,2 x2 | x4 | x2 (F,G,) | x4 | %14
 B,2 B,,2 | x4 | x2 C,2 | x4 | x4 | x4 | A,2 x2 | x4 | C,2 C,2 | x4 |] %24

